X:53225
F:http://www.vwml.org/record/HAM/5/32/25%%VWML:HAM-5-32-25-0
T:An old Lady was clothA d in grey
S:Mrs Marina Russell, Upwey coll. HED Hammond
O:England
A:Dorset
N:Transcribed from HAM-02-237.gif
F:HAM-05-32-25.abc
Z:EFDSS;PJHeadford
M:3/4
L:1/4
Q:1/4=100
K:A
E/ E/|AB A|=GF E|A2 A|de d|cc B&xAx|A2 E|
EA A|=GF E|A2 A|d2 d|cA B|A2 A|
AB c|de c|d2 c|dc d|e=g f|e2 A|
Ae e|AB A|=GF E|Bc d|ed c|B2||
"^Chorus"A/ A/|A>A A/ B/|=c3|d>e =f|e=c A|A2||
w:Fal the del the did-dle al Fal the dal did-dle al day
yyy"<or ends"yyy|d>e d|=cA A|A2||
W:Transcribed from HAM-02-237.gif - Hammond's field notes
W:[left of title:] Modal 529 [right of title:] Mrs Russell of Upwey
W:[after tune:] Words D VII p 6 [indistinct]
W:The MIDI file HAM-05-32-25.mid has 2 verses, the second using the alternative.
